bvspca/static/svg/fax-white.svg

<?xml version="1.0" encoding="UTF-8" standalone="no"?><!DOCTYPE svg PUBLIC "-//W3C//DTD SVG 1.1//EN" "http://www.w3.org/Graphics/SVG/1.1/DTD/svg11.dtd"><svg width="100%" height="100%" viewBox="0 0 50 50" version="1.1" xmlns="http://www.w3.org/2000/svg" xmlns:xlink="http://www.w3.org/1999/xlink" xml:space="preserve" xmlns:serif="http://www.serif.com/" style="fill-rule:evenodd;clip-rule:evenodd;stroke-linejoin:round;stroke-miterlimit:1.41421;"><path d="M14.498,12.75l20.564,0l0,-7.814l-20.564,0l0,7.814Zm25.5,25.5l4.627,0l0,-20.565l-39.69,0l0,20.565l4.627,0l0,-6.375l30.436,0l0,6.375Zm-25.5,6.375l20.564,0l0,-7.814l-20.564,0l0,7.814Zm-2.468,4.935c-1.36,0 -2.468,-1.107 -2.468,-2.468l0,-3.907l-7.095,0c-1.36,0 -2.467,-1.107 -2.467,-2.468l0,-25.5c0,-1.36 1.107,-2.467 2.467,-2.467l7.095,0l0,-10.283c0,-1.36 1.108,-2.467 2.468,-2.467l25.5,0c1.36,0 2.468,1.107 2.468,2.467l0,10.283l7.094,0c1.361,0 2.468,1.107 2.468,2.467l0,25.5c0,1.361 -1.107,2.468 -2.468,2.468l-7.094,0l0,3.907c0,1.361 -1.108,2.468 -2.468,2.468l-25.5,0Z" style="fill:#fff;fill-rule:nonzero;"/></svg>

<svg viewBox="0 0 50 50" xmlns="http://www.w3.org/2000/svg" fill-rule="evenodd" clip-rule="evenodd" stroke-linejoin="round" stroke-miterlimit="1.414"><path d="M14.498 12.75h20.564V4.936H14.498v7.814zm25.5 25.5h4.627V17.685H4.935V38.25h4.627v-6.375h30.436v6.375zm-25.5 6.375h20.564v-7.814H14.498v7.814zM12.03 49.56a2.471 2.471 0 0 1-2.468-2.468v-3.907H2.467A2.47 2.47 0 0 1 0 40.717v-25.5a2.47 2.47 0 0 1 2.467-2.467h7.095V2.467A2.471 2.471 0 0 1 12.03 0h25.5a2.471 2.471 0 0 1 2.468 2.467V12.75h7.094a2.47 2.47 0 0 1 2.468 2.467v25.5a2.47 2.47 0 0 1-2.468 2.468h-7.094v3.907a2.471 2.471 0 0 1-2.468 2.468h-25.5z" fill="#fff" fill-rule="nonzero"/></svg>
